X: 18253
T: Humours Of Lisslevane, The
R: jig
M: 6/8
K: Edorian
|:B2E EDE|G2E EDE|DEF ~A3|Bed BAG|
B2E EDE|G2E EDE|DEF AFD|1 EFD E2A:|2 EFD E3||
g2e ede|g2e ede|g2e ede|~B3 GEE|
g2e ede|g2e edB|ABd BAF|EFD E3|
g2e ede|g2e ede|~B3 ABB|GBG ~B3|
g2e ede|g2e edB|ABd BAF|EFD E3||

